X: 9
T:Lembranzas do Gaiteiro
M:3/4
L:1/8
Q:250
C:E. Otero
R:Jota
B:Leccións de Gaita. OTERO COVELO
K:C
GAGE |: CEGc BA | GA BGAB | ABAG F2- | 
F2 FGFD | B,DFB AG | FGAF GA | GAGF E2- | E2 GAGE | CEGc BA|
GABG AB | ABAG A2- | A2 ABcA | BAGA BA | BAGF ED | C6- |1
C2 GAGE :|2 C2 c2BA |: B2 AG A2 | GA B2 AG | A3GF2- | F2 B2AG |
A2 GF G2 | FG A2 GF | G3 FE2- | E2 c2BA | B2AGA2 | GAB2 AG |
A3GF2- | F2 B2AG | A2GF G2 | FGA2 GF | E6- |1 E2 c2BA :|2 
E4 D2 |: F4 G2-| G2 |A2 BA | G3 F E2- | E4 E2 | G4 A2- | A2 B2 cB |
A3GF2- |1 F4 D2 :|2 F2 G2 AG | B4 A2- | A2 c2 BA | G3 F E2- | E4 E2 |
G4 A2- | A2 B2 cB | A3 GF2- | F2 G2 AG | B4 A2- | A2 G2 AB | c6- | c2 ||

